X: 16
M:2/2
L:1/8
Q:160
K:D
|: f2 d2 f2 a2 | e>d c>d e>f g2|f>e d>e f>g a2| a>g f>e A4|f2 d2 f2 a2| c>d e>f g>g a2| f2 f2 e>f g>e| d2 f2 d4:|

